X: 26
T: Connie The Soldier
Z: Dylan Cox
S: https://thesession.org/tunes/373#setting53059
R: jig
M: 6/8
L: 1/8
K: Dmix
|: A,| DEG A2A| AdB cAG| EGG EGG| EcA GEA|
DEG A2A| AdB cAG| EGG EAG| EDD D3 :|
|: e|fdd ede| fd^c d2e| fed c2c| BAG A2g|
fed ed^c| ded cAG| EGG EAG| EDD D3 :|

